src/assets/icons/svg/join_example.svg

<svg xmlns="http://www.w3.org/2000/svg" fill="none" viewBox="0 0 40 40" class="design-iconfont" width="128" height="128">
  <path fill="#0070FF" fill-opacity=".1" d="M20 0A20 20 0 1 0 20 40A20 20 0 1 0 20 0Z"></path>
  <path d="M27.0837 12.5H12.917C12.2266 12.5 11.667 13.0596 11.667 13.75V26.25C11.667 26.9404 12.2266 27.5 12.917 27.5H27.0837C27.774 27.5 28.3337 26.9404 28.3337 26.25V13.75C28.3337 13.0596 27.774 12.5 27.0837 12.5Z" stroke="#0070FF" stroke-width="1.6" stroke-linecap="round" stroke-linejoin="round"></path>
  <path d="M11.667 15.834H28.3337" stroke="#0070FF" stroke-width="1.6" stroke-linecap="round" stroke-linejoin="round"></path>
  <path d="M18.333 20H24.9997" stroke="#0070FF" stroke-width="1.6" stroke-linecap="round" stroke-linejoin="round"></path>
  <path d="M18.333 23.334H24.9997" stroke="#0070FF" stroke-width="1.6" stroke-linecap="round" stroke-linejoin="round"></path>
  <path d="M15 20H15.8333" stroke="#0070FF" stroke-width="1.6" stroke-linecap="round" stroke-linejoin="round"></path>
  <path d="M15 23.334H15.8333" stroke="#0070FF" stroke-width="1.6" stroke-linecap="round" stroke-linejoin="round"></path>
</svg>

<svg xmlns="http://www.w3.org/2000/svg" width="128" height="128" fill="none" class="design-iconfont" viewBox="0 0 40 40"><path fill="#0070FF" fill-opacity=".1" d="M20 0a20 20 0 1 0 0 40 20 20 0 1 0 0-40Z"/><path stroke="#0070FF" stroke-linecap="round" stroke-linejoin="round" stroke-width="1.6" d="M27.084 12.5H12.917c-.69 0-1.25.56-1.25 1.25v12.5c0 .69.56 1.25 1.25 1.25h14.167c.69 0 1.25-.56 1.25-1.25v-12.5c0-.69-.56-1.25-1.25-1.25Zm-15.417 3.334h16.667M18.333 20H25m-6.667 3.334H25M15 20h.833M15 23.334h.833"/></svg>
